X:1
T:Title
%%score [ ( 1 2 ) ( 3 4 ) ] { ( 5 6 ) | ( 7 8 ) }
L:1/8
Q:1/4=120
M:4/4
K:Eb
V:1 treble nm="Midi_74"
V:2 treble 
V:3 bass nm="Midi_74"
V:4 bass 
V:5 treble nm="Org." snm="Org."
V:6 treble 
V:7 bass 
V:8 bass 
V:1
"^Major""^RRR" G8 | c4 A4 | G8 || (c6 B2) | A4 f4 | e4 (d2 c2) |{c} =B8 || (c6 d2) | e4 c4 | =B8 || %10
 (G6 F2) | E4 c4 |"^William Henry Havergal\n(1793-1870)" c4 =B4 | c8 |] %14
"^As suggested by Havergal, a version in C major." G8 | c4 =A4 | G8 || (c6 =B2) | =A4 f4 | %19
 =e4 (d2 c2) |{c} =B8 || (c6 d2) | =e4 c4 | =B8 || (G6 F2) | =E4 c4 | c4 =B4 | c8 |] %28
V:2
 (E6 D2) | C4 F4 | G8 || G8 | F4 F4 | G4 A4 | G8 || G8 | G4 (G2 ^F2) | G8 || D8 | E4 (E2 A2) | %12
 A4 G2 F2 | E8 |] (=E6 D2) | C4 F4 | G8 || G8 | F4 F4 | G4 =A4 | G8 || G8 | G4 (G2 ^F2) | G8 || %24
 D8 | =E4 (E2 =A2) | =A4 (G2 F2) | =E8 |] %28
V:3
 G,8 | A,4 C4 | C8 || C8 | C4 =B,4 | (C2 E2) (F2 E2) |{E} D8 || (C6 =B,2) | C4 C4 | D8 || D8 | %11
 C4 E4 | D4 D4 | C8 |] G,8 | =A,4 C4 | C8 || C8 | C4 =B,4 | (C2 =E2) (F2 E2) |{=E} D8 || %21
 (C6 =B,2) | C4 C4 | D8 || D8 | C4 =E4 | D4 D4 | C8 |] %28
V:4
 (C,6 B,,2) | A,,4 F,4 | E,8 || E,8 | F,4 E,4 | C,4 F,4 | G,8 || (E,6 D,2) | C,4 A,4 | G,8 || %10
 =B,8 | C4 A,4 | F,4 G,4 | C,8 |] (C,6 =B,,2) | =A,,4 F,4 | =E,8 || =E,8 | F,4 D,4 | C,4 F,4 | %20
 G,8 || (=E,6 D,2) | C,4 =A,4 | G,8 || =B,8 | C4 =A,4 | F,4 G,4 | C,8 |] %28
V:5
 G8 | c4 A4 | G8 || c6 B2 | A4 f4 | e4 d2 c2 |{c} =B8 || c6 d2 | e4 [Ec]4 | =B8 || G6 F2 | E4 c4 | %12
 c4 [D=B]4 | c8 |] G8 | c4 =A4 | G8 || c6 =B2 | =A4 f4 | =e4 d2 c2 |{c} =B8 || c6 d2 | =e4 [Cc]4 | %23
 [D=B]8 || G6 F2 | =E4 c4 | c4 [D=B]4 | [Cc]8 |] %28
V:6
 E6 D2 | [A,CE]4 [CF]4 | [CG]8 || [CG]8 | [CF]4 [F=B]4 | [Gc]4 [FA]4 |{E} [DG]8 || G8 | %8
 [Gc]4 G2 ^F2 | [DG]8 || D8 | E4 [EA]4 | [DA]4 G2 F2 | E8 |] =E6 D2 | [C=E]4 [CF]4 | [CG]8 || %17
 [CG]8 | [CF]4 [F=B]4 | [Gc]4 [F=A]4 |{=E} [DG]8 || G8 | [Gc]4 G2 ^F2 | G8 || D8 | =E4 [E=A]4 | %26
 [D=A]4 G2 F2 | =E8 |] %28
V:7
 G,8 | x8 | x8 || x8 | x8 | x8 | x8 || x8 | x8 | x8 || x8 | x8 | x8 | x8 |] G,8 | =A,4 x4 | x8 || %17
 x8 | x8 | x8 | x8 || x8 | x8 | x8 || x8 | x8 | x8 | x8 |] %28
V:8
 C,6 B,,2 | A,,4 F,4 | E,8 || E,8 | F,4 E,4 | C,4 F,4 | G,8 || E,6 D,2 | C,4 A,4 | G,8 || =B,8 | %11
 C4 A,4 | F,4 G,4 | C,8 |] C,6 =B,,2 | =A,,4 F,4 | =E,8 || =E,8 | F,4 D,4 | C,4 F,4 | G,8 || %21
 =E,6 D,2 | C,4 =A,4 | G,8 || =B,8 | C4 =A,4 | F,4 G,4 | C,8 |] %28

